public/resources/logo.svg

<?xml version="1.0" encoding="UTF-8" standalone="no"?>
<svg
   width="90"
   height="32"
   fill="none"
   version="1.1"
   id="svg874"
   sodipodi:docname="safe-logo.svg"
   inkscape:version="1.1 (c4e8f9e, 2021-05-24)"
   xmlns:inkscape="http://www.inkscape.org/namespaces/inkscape"
   xmlns:sodipodi="http://sodipodi.sourceforge.net/DTD/sodipodi-0.dtd"
   xmlns:xlink="http://www.w3.org/1999/xlink"
   xmlns="http://www.w3.org/2000/svg"
   xmlns:svg="http://www.w3.org/2000/svg">
  <defs
     id="defs878">
    <linearGradient
       id="a"
       x1="1.28"
       y1="164.53"
       x2="258.89001"
       y2="164.53"
       gradientUnits="userSpaceOnUse">
      <stop
         offset="0"
         stop-color="gold"
         id="stop99" />
      <stop
         offset="0.02"
         stop-color="#fcd403"
         id="stop101" />
      <stop
         offset="0.22"
         stop-color="#e6be19"
         id="stop103" />
      <stop
         offset="0.43"
         stop-color="#d7ad29"
         id="stop105" />
      <stop
         offset="0.68"
         stop-color="#cea432"
         id="stop107" />
      <stop
         offset="1"
         stop-color="#cba135"
         id="stop109" />
    </linearGradient>
    <linearGradient
       id="b"
       x1="24.75"
       y1="163.06"
       x2="282.35001"
       y2="163.06"
       xlink:href="#a"
       gradientTransform="matrix(0.16189021,0,0,0.15648059,-0.20721946,0)" />
    <linearGradient
       id="c"
       x1="76"
       y1="99.07"
       x2="212.99001"
       y2="233.78"
       xlink:href="#a" />
    <linearGradient
       id="d"
       x1="56.950001"
       y1="324.82999"
       x2="259.85001"
       y2="424.78"
       gradientUnits="userSpaceOnUse">
      <stop
         offset="0"
         stop-color="gold"
         id="stop114" />
      <stop
         offset="1"
         stop-color="#cba135"
         id="stop116" />
    </linearGradient>
  </defs>
  <sodipodi:namedview
     id="namedview876"
     pagecolor="#ffffff"
     bordercolor="#666666"
     borderopacity="1.0"
     inkscape:pageshadow="2"
     inkscape:pageopacity="0.0"
     inkscape:pagecheckerboard="0"
     showgrid="false"
     inkscape:zoom="3.9939761"
     inkscape:cx="88.758668"
     inkscape:cy="103.53091"
     inkscape:window-width="1720"
     inkscape:window-height="1387"
     inkscape:window-x="-1"
     inkscape:window-y="25"
     inkscape:window-maximized="1"
     inkscape:current-layer="svg874" />
  <path
     d="m 44.557,15.328 c -0.82,-0.317 -1.822,-0.581 -3.005,-0.793 h -0.025 c -1.15,-0.195 -2.012,-0.374 -2.587,-0.537 -0.575,-0.162 -1.027,-0.382 -1.357,-0.659 -0.33,-0.276 -0.494,-0.658 -0.494,-1.146 0,-0.716 0.28,-1.26 0.837,-1.634 0.558,-0.374 1.293,-0.561 2.206,-0.561 0.997,0 1.804,0.243 2.422,0.732 0.554,0.438 0.893,0.995 1.018,1.669 0.0263,0.136162 0.145322,0.234648 0.284,0.235 l 2.806,0.02 c 0.172,0.002 0.31,-0.14 0.293,-0.305 -0.08841,-0.887298 -0.408051,-1.735876 -0.927,-2.461 -0.584,-0.821 -1.387,-1.46 -2.41,-1.915 -1.022,-0.456 -2.184,-0.684 -3.486,-0.684 -1.234,0 -2.345,0.22 -3.334,0.66 -0.99,0.439 -1.759,1.048 -2.308,1.829 -0.545951,0.769321 -0.834392,1.691703 -0.824,2.635 0,1.073 0.245,1.935 0.735,2.585 0.497717,0.656533 1.163484,1.166482 1.927,1.476 0.794,0.334 1.75,0.598 2.865,0.793 l 0.127,0.024 c 1.182,0.212 2.066,0.4 2.65,0.562 0.583,0.163 1.043,0.39 1.382,0.683 0.337,0.292 0.506,0.691 0.506,1.195 0,0.716 -0.304,1.277 -0.912,1.683 -0.609,0.407 -1.395,0.61 -2.359,0.61 -1.15,0 -2.079,-0.28 -2.789,-0.842 -0.646,-0.51 -1.026,-1.165 -1.14,-1.966 -0.02123,-0.140567 -0.14184,-0.244619 -0.284,-0.245 l -2.803,-0.04 c -0.17,-0.003 -0.308,0.135 -0.295,0.299 0.08,0.984 0.4,1.87 0.96,2.66 0.617,0.87 1.466,1.553 2.548,2.05 1.081,0.496 2.324,0.743 3.727,0.743 1.302,0 2.468,-0.227 3.5,-0.683 1.03,-0.455 1.838,-1.085 2.421,-1.89 0.577973,-0.78827 0.884971,-1.742594 0.875,-2.72 0,-1.074 -0.254,-1.94 -0.76,-2.599 -0.507,-0.659 -1.171,-1.146 -1.99,-1.464 z m 17.231,6.575 H 61.35 c -0.254,0 -0.453,-0.065 -0.596,-0.196 -0.144,-0.13 -0.216,-0.341 -0.216,-0.634 v -4.66 c 0,-1.48 -0.49,-2.606 -1.47,-3.378 -0.98,-0.772 -2.135,-1.166 -3.944,-1.166 -1.708,0 -3.042,0.357 -4.09,1.056 -0.955,0.637 -1.53,1.51 -1.728,2.621 -0.03,0.173 0.105,0.33 0.287,0.33 h 2.577 c 0.129,0 0.245,-0.08 0.279,-0.2 0.117,-0.412 0.377,-0.747 0.778,-1.007 0.465,-0.3 1.017,-0.451 1.744,-0.451 1.371,0 2.346,0.813 2.346,2.025 v 0.378 c 0,0.155 -0.13,0.28 -0.29,0.28 h -2.335 c -1.893,0 -3.33,0.358 -4.31,1.074 -0.98,0.716 -1.471,1.732 -1.471,3.05 0,1.138 0.448,2.033 1.344,2.683 0.672,0.487 1.476,0.769 2.303,0.892 0.632,0.095 1.281,0.129 1.915,0.031 0.664,-0.102 1.203,-0.365 1.742,-0.74 0.485,-0.337 0.89,-0.769 1.258,-1.295 0.18,-0.297 0.653,-0.178 0.653,0.166 v 0.413 c -10e-4,0.752 0.632,1.362 1.413,1.362 h 2.249 c 0.157193,0.0022 0.286718,-0.122826 0.29,-0.28 v -2.075 c 0,-0.154 -0.13,-0.28 -0.29,-0.28 z m -4.47,-2.513 c 0,0.602 -0.131,1.126 -0.393,1.573 -0.55,0.938 -1.532,1.427 -2.638,1.427 -0.642,0 -1.158,-0.146 -1.547,-0.438 -0.377355,-0.269225 -0.595933,-0.70863 -0.583,-1.172 0,-0.552 0.216,-0.98 0.647,-1.28 0.43,-0.3 1.043,-0.451 1.838,-0.451 h 2.385 c 0.16,0 0.29,0.125 0.29,0.28 V 19.39 Z M 71.182,7.468 H 67.83 c -1.77,0 -3.203,1.38 -3.203,3.082 v 1.354 c 0,0.155 -0.13,0.28 -0.291,0.28 H 62.42 c -0.15758,-0.0028 -0.287718,0.122429 -0.291,0.28 v 2.098 c 0,0.155 0.13,0.28 0.29,0.28 h 1.916 c 0.16,0 0.29,0.126 0.29,0.28 v 9.135 c 0,0.155 0.13,0.28 0.292,0.28 h 2.613 c 0.16,0 0.29,-0.125 0.29,-0.28 v -9.134 c 0,-0.155 0.131,-0.28 0.292,-0.28 h 3.045 c 0.16,0 0.29,-0.126 0.29,-0.28 v -2.1 c 0,-0.154 -0.13,-0.28 -0.29,-0.28 h -3.045 c -0.15758,0.0028 -0.287718,-0.122429 -0.291,-0.28 v -1.216 c 0,-0.31 0.26,-0.56 0.582,-0.56 h 2.779 c 0.157193,0.0022 0.286718,-0.122826 0.29,-0.28 V 7.748 c 0,-0.155 -0.13,-0.28 -0.29,-0.28 z m 12.801,7.238 c -0.559682,-0.904398 -1.364053,-1.631798 -2.32,-2.098 -0.981,-0.488 -2.114,-0.739 -3.398,-0.739 -1.284,0 -2.393,0.272 -3.373,0.8 -0.962353,0.510645 -1.755268,1.290357 -2.282,2.244 -0.54,0.968 -0.811,2.102 -0.811,3.404 0,1.3 0.279,2.386 0.836,3.354 0.559,0.968 1.357,1.712 2.396,2.232 1.04,0.52 2.261,0.78 3.665,0.78 1.081,0 2.05,-0.19 2.903,-0.572 0.853,-0.382 1.542,-0.907 2.066,-1.574 0.438709,-0.550567 0.752303,-1.19004 0.919,-1.874 0.04038,-0.180247 -0.09934,-0.350467 -0.284,-0.346 h -2.624 c -0.123664,-8.48e-4 -0.234356,0.07656 -0.276,0.193 -0.175845,0.51475 -0.521406,0.954458 -0.98,1.247 -0.525,0.341 -1.175,0.512 -1.953,0.512 -0.642,0 -1.204,-0.13 -1.686,-0.39 -0.474335,-0.253386 -0.868996,-0.633506 -1.14,-1.098 -0.11,-0.186 -0.2,-0.383 -0.273,-0.586 -0.07596,-0.217989 -0.132841,-0.442165 -0.17,-0.67 -0.0132,-0.07977 -0.02487,-0.159784 -0.035,-0.24 -0.02,-0.165 0.116,-0.31 0.29,-0.31 h 9.051 c 0.144747,0.0035 0.269286,-0.1017 0.29,-0.245 0.012,-0.103 0.02,-0.208 0.025,-0.316 0.008,-0.195 0.012,-0.374 0.012,-0.536 0,-1.203 -0.283,-2.26 -0.849,-3.171 z m -2.72,2.147 h -5.67 c -0.185,0 -0.326,-0.166 -0.285,-0.34 0.091,-0.384 0.248,-0.729 0.471,-1.039 0.287,-0.398 0.66,-0.703 1.116,-0.914 0.469292,-0.214487 0.980041,-0.323055 1.496,-0.318 0.879,0 1.606,0.228 2.18,0.683 0.494,0.391 0.819,0.92 0.976,1.586 0.041,0.175 -0.098,0.342 -0.284,0.342 z"
     fill="#121312"
     id="path872"
     style="fill:#06fc99;fill-opacity:1"
     sodipodi:nodetypes="cccccscscccccccscccccccccscscccccccscccccccscssssccssccssssssscccccscsccsccccscccsssccsssssccssssssssssssssccssccssccsccsccssccccccscccccscccsccssccccccs" />
  <g
     style="fill:none"
     id="g1088"
     transform="matrix(0.75991241,0,0,0.75991241,-13.509353,15.813029)">
    <path
       fill-rule="evenodd"
       clip-rule="evenodd"
       d="m 25.321757,-19.279034 v 6.75926 h -6.2931 v 25.68514 h 6.2931 v 6.7593 h 30.2069 v -39.2037 z m 23.4476,6.75875 h -16.2222 v 6.7592503 h -6.75926 v 12.1667 h 6.75926 v 6.7591997 h 16.2222 V 6.4056663 h -16.2222 v -12.1667 h 16.2222 z"
       fill="#06fc99"
       id="path1074" />
  </g>
</svg>

<svg width="90" height="32" viewBox="0 0 90 32" fill="none" xmlns="http://www.w3.org/2000/svg">
<path d="M44.5568 15.3278C43.7367 15.0109 42.735 14.7468 41.5518 14.5349H41.5267C40.3772 14.3399 39.5148 14.1609 38.9401 13.9979C38.3653 13.8358 37.9133 13.6162 37.5834 13.3395C37.2535 13.0633 37.0891 12.6811 37.0891 12.193C37.0891 11.4775 37.3682 10.9327 37.9258 10.5588C38.484 10.1848 39.2191 9.99761 40.1318 9.99761C41.1294 9.99761 41.936 10.2414 42.5535 10.7296C43.1076 11.1679 43.447 11.7247 43.5717 12.399C43.5964 12.5335 43.7145 12.6327 43.8563 12.6342L46.6622 12.6545C46.8342 12.6559 46.972 12.5137 46.9549 12.3487C46.8608 11.4465 46.5516 10.626 46.0276 9.88779C45.4443 9.06683 44.6413 8.42826 43.6185 7.97254C42.5957 7.51732 41.4337 7.28946 40.1318 7.28946C38.8978 7.28946 37.7866 7.50909 36.7975 7.94836C35.8089 8.38762 35.0395 8.99717 34.4899 9.77798C33.9403 10.5588 33.6658 11.4368 33.6658 12.4126C33.6658 13.4861 33.9107 14.3482 34.4009 14.9983C34.8912 15.649 35.5333 16.141 36.3278 16.4743C37.1223 16.8077 38.0772 17.0718 39.193 17.2672L39.3197 17.2914C40.5024 17.5028 41.3864 17.6901 41.9697 17.8526C42.553 18.0156 43.0131 18.243 43.3515 18.5357C43.6894 18.8284 43.8584 19.227 43.8584 19.7311C43.8584 20.4471 43.5541 21.0078 42.9457 21.4141C42.3373 21.821 41.5508 22.0242 40.5874 22.0242C39.4374 22.0242 38.5081 21.7436 37.7981 21.1824C37.152 20.672 36.7718 20.0165 36.6577 19.2163C36.6381 19.078 36.5184 18.973 36.3736 18.9711L33.5712 18.9304C33.4008 18.928 33.263 19.0664 33.2761 19.2299C33.3555 20.2139 33.6753 21.1006 34.2355 21.8902C34.8525 22.7605 35.7018 23.4435 36.7839 23.9394C37.8655 24.4358 39.108 24.6834 40.5114 24.6834C41.8128 24.6834 42.9794 24.4561 44.0107 24.0004C45.0415 23.5451 45.8491 22.9148 46.4324 22.1098C47.0157 21.3048 47.3073 20.3982 47.3073 19.3895C47.3073 18.3161 47.0534 17.4501 46.5465 16.7912C46.0397 16.1323 45.3759 15.6447 44.5563 15.3273L44.5568 15.3278Z" fill="#121312"/>
<path d="M61.7876 21.9027H61.3497C61.0962 21.9027 60.8971 21.8379 60.7538 21.7073C60.61 21.5776 60.5381 21.3657 60.5381 21.0731V16.4134C60.5381 14.9335 60.0478 13.8073 59.0678 13.0347C58.0872 12.2626 56.9327 11.8688 55.124 11.8688C53.4163 11.8688 52.0823 12.2259 51.0344 12.9249C50.079 13.5625 49.5032 14.4357 49.3061 15.546C49.2754 15.7187 49.4112 15.8769 49.5927 15.8769H52.1698C52.299 15.8769 52.4147 15.7951 52.4489 15.6751C52.5665 15.2644 52.826 14.9292 53.2273 14.6694C53.6919 14.3685 54.244 14.218 54.9711 14.218C56.3424 14.218 57.3174 15.0312 57.3174 16.2426V16.6214C57.3174 16.7762 57.1871 16.9015 57.0262 16.9015H54.6921C52.7989 16.9015 51.3617 17.2595 50.3817 17.975C49.4012 18.691 48.9109 19.7074 48.9109 21.0242C48.9109 22.163 49.3589 23.0575 50.255 23.7077C50.9273 24.1953 51.7308 24.4769 52.558 24.6002C53.1901 24.6946 53.8392 24.7289 54.4728 24.6312C55.1366 24.5291 55.6756 24.266 56.2152 23.8905C56.6999 23.5538 57.1042 23.1223 57.4733 22.596C57.6533 22.2985 58.1255 22.4179 58.1255 22.7619V23.1755C58.125 23.9273 58.758 24.5369 59.5394 24.5369H61.7876C61.9486 24.5369 62.0788 24.4116 62.0788 24.2568V22.1823C62.0788 22.0275 61.9486 21.9022 61.7876 21.9022V21.9027ZM57.3179 19.39C57.3179 19.9918 57.1866 20.5162 56.9247 20.9632C56.3756 21.9008 55.393 22.3904 54.2873 22.3904C53.6446 22.3904 53.1292 22.2443 52.7405 21.9516C52.3513 21.6589 52.1572 21.2685 52.1572 20.7804C52.1572 20.2279 52.3729 19.8007 52.8039 19.4998C53.2348 19.1994 53.8473 19.0485 54.6423 19.0485H57.0267C57.1877 19.0485 57.3179 19.1738 57.3179 19.3286V19.39V19.39Z" fill="#121312"/>
<path d="M71.1823 7.46796H67.8288C66.0598 7.46796 64.6257 8.84767 64.6257 10.5496V11.9037C64.6257 12.0585 64.4955 12.1838 64.3346 12.1838H62.4197C62.2588 12.1838 62.1286 12.3091 62.1286 12.4639V14.5625C62.1286 14.7173 62.2588 14.8426 62.4197 14.8426H64.3346C64.4955 14.8426 64.6257 14.9679 64.6257 15.1227V24.2572C64.6257 24.412 64.7559 24.5373 64.9169 24.5373H67.5296C67.6905 24.5373 67.8208 24.412 67.8208 24.2572V15.1227C67.8208 14.9679 67.951 14.8426 68.1119 14.8426H71.1566C71.3175 14.8426 71.4478 14.7173 71.4478 14.5625V12.4639C71.4478 12.3091 71.3175 12.1838 71.1566 12.1838H68.1119C67.951 12.1838 67.8208 12.0585 67.8208 11.9037V10.687C67.8208 10.3774 68.0817 10.1268 68.403 10.1268H71.1817C71.3427 10.1268 71.4729 10.0015 71.4729 9.84666V7.74806C71.4729 7.59325 71.3427 7.46796 71.1817 7.46796H71.1823Z" fill="#121312"/>
<path d="M83.9825 14.7062C83.4163 13.7957 82.6425 13.0962 81.6624 12.608C80.6819 12.1204 79.549 11.8693 78.2647 11.8693C76.9805 11.8693 75.8722 12.1407 74.8922 12.669C73.9116 13.1978 73.1508 13.9457 72.6103 14.9132C72.0692 15.8812 71.7987 17.0152 71.7987 18.3165C71.7987 19.6179 72.0778 20.7035 72.6354 21.671C73.1936 22.6385 73.9921 23.3826 75.0315 23.9031C76.0708 24.4237 77.2922 24.6839 78.6957 24.6839C79.7773 24.6839 80.7453 24.4928 81.5991 24.1107C82.4524 23.729 83.1413 23.2041 83.6653 22.5374C84.1138 21.9666 84.42 21.3416 84.5839 20.6628C84.6267 20.4867 84.4884 20.3174 84.3003 20.3174H81.6755C81.5498 20.3174 81.4397 20.3958 81.3995 20.5104C81.2144 21.0363 80.8881 21.4519 80.4199 21.7566C79.8955 22.0982 79.2448 22.2689 78.4674 22.2689C77.8248 22.2689 77.2631 22.1388 76.7814 21.8785C76.2996 21.6188 75.9195 21.2525 75.6404 20.7809C75.5303 20.5946 75.4403 20.3977 75.3684 20.195C75.2914 19.9773 75.2361 19.7529 75.1979 19.5255C75.1848 19.4461 75.1728 19.3658 75.1627 19.2855C75.1431 19.1201 75.2794 18.9754 75.4524 18.9754H84.504C84.6508 18.9754 84.7765 18.8709 84.7931 18.7302C84.8057 18.6271 84.8142 18.5221 84.8188 18.4143C84.8273 18.2193 84.8313 18.0403 84.8313 17.8778C84.8313 16.6746 84.5482 15.6176 83.982 14.7066L83.9825 14.7062ZM81.2627 16.8526H75.5936C75.4076 16.8526 75.2673 16.6867 75.3085 16.5121C75.3991 16.1294 75.5559 15.784 75.7792 15.4744C76.0663 15.0762 76.4384 14.771 76.895 14.5596C77.3516 14.3482 77.8499 14.2422 78.391 14.2422C79.2699 14.2422 79.997 14.4701 80.5718 14.9253C81.0651 15.3162 81.3899 15.8445 81.5473 16.5106C81.5885 16.6857 81.4492 16.8526 81.2627 16.8526V16.8526Z" fill="#121312"/>
<path d="M26.7572 15.9983H24.2722C23.53 15.9983 22.9286 16.5769 22.9286 17.291V20.761C22.9286 21.4751 22.3272 22.0537 21.585 22.0537H11.6986C10.9564 22.0537 10.355 22.6323 10.355 23.3463V25.7371C10.355 26.4512 10.9564 27.0298 11.6986 27.0298H22.1572C22.8994 27.0298 23.4923 26.4512 23.4923 25.7371V23.819C23.4923 23.1049 24.0937 22.5984 24.8359 22.5984H26.7567C27.4989 22.5984 28.1003 22.0198 28.1003 21.3058V17.276C28.1003 16.5619 27.4989 15.9983 26.7567 15.9983H26.7572Z" fill="#121312"/>
<path d="M10.3545 11.2487C10.3545 10.5346 10.9559 9.95602 11.6981 9.95602H21.5785C22.3206 9.95602 22.922 9.37743 22.922 8.66338V6.27259C22.922 5.55854 22.3206 4.97995 21.5785 4.97995H11.1254C10.3832 4.97995 9.7818 5.55854 9.7818 6.27259V8.11479C9.7818 8.82883 9.1804 9.40742 8.43821 9.40742H6.5259C5.78371 9.40742 5.18231 9.98601 5.18231 10.7001V14.7342C5.18231 15.4483 5.78622 15.9978 6.52842 15.9978H9.01346C9.75565 15.9978 10.357 15.4192 10.357 14.7052L10.3545 11.2491V11.2487Z" fill="#121312"/>
<path d="M15.4719 13.4851H17.8589C18.6368 13.4851 19.2679 14.0928 19.2679 14.8407V17.1371C19.2679 17.8855 18.6363 18.4927 17.8589 18.4927H15.4719C14.6941 18.4927 14.063 17.885 14.063 17.1371V14.8407C14.063 14.0923 14.6946 13.4851 15.4719 13.4851V13.4851Z" fill="#121312"/>
</svg>
